src/actions/symbolic/view-reader-symbolic.svg

<svg width="16" height="16" version="1.1" xmlns="http://www.w3.org/2000/svg">
 <path fill="#363636" d="m1.5 1a0.50005 0.50005 0 0 0-0.5 0.5v9.5 1.5 0.5c0 1.0994 0.90065 2 2 2h9 0.5 0.5c1.0994 0 2-0.90065 2-2v-2-5c0-0.54535-0.45465-1-1-1h-1v-3.5a0.50005 0.50005 0 0 0-0.5-0.5h-11zm0.5 1h10v3 0.5 5.5 1.5c-0.0028 0.47926-8.91e-4 0.98185 0 1.5h-9c-0.56265 0-1-0.43735-1-1v-0.5-1.5-9zm1 1v1h2v-1h-2zm3 0v1h5v-1h-5zm7 3h1v5 2c0 0.56265-0.43735 1-1 1-8.91e-4 -0.51903-0.002848-1.022 0-1.4961a0.50005 0.50005 0 0 0 0-0.003906v-6.5z"/>
 <path fill="#363636" d="m3 6v1h3v-1h-3zm5 0c-0.54535 0-1 0.45465-1 1v3c0 0.54535 0.45465 1 1 1h2c0.54535 0 1-0.45465 1-1v-3c0-0.54535-0.45465-1-1-1h-2zm0 1h2v3h-2v-3zm-5 1v1h3v-1h-3zm0 2v1h3v-1h-3zm0 2v1h8v-1h-8z"/>
</svg>

<svg xmlns="http://www.w3.org/2000/svg" width="16" height="16">
    <path fill="#050505" d="M1.5 1a.5.5 0 0 0-.5.5V13c0 1.1.9 2 2 2h10c1.1 0 2-.9 2-2V6c0-.545-.455-1-1-1h-1V1.5a.5.5 0 0 0-.5-.5h-11zM2 2h10v10.5c-.003.48 0 .982 0 1.5H3c-.563 0-1-.437-1-1V2zm1 1v1h2V3H3zm3 0v1h5V3H6zm7 3h1v7c0 .563-.437 1-1 1 0-.519-.003-1.022 0-1.496a.5.5 0 0 0 0-.004V6z" opacity=".7"/>
    <path fill="#050505" d="M3 6v1h3V6H3zm5 0c-.545 0-1 .455-1 1v3c0 .545.455 1 1 1h2c.545 0 1-.455 1-1V7c0-.545-.455-1-1-1H8zm0 1h2v3H8V7zM3 8v1h3V8H3zm0 2v1h3v-1H3zm0 2v1h8v-1H3z" opacity=".7"/>
</svg>
